svgs/solid/light-switch.svg

<svg xmlns="http://www.w3.org/2000/svg" viewBox="0 0 384 512"><!--! Font Awesome Pro 6.1.2 by @fontawesome - https://fontawesome.com License - https://fontawesome.com/license (Commercial License) Copyright 2022 Fonticons, Inc. --><path d="M320 0H64c-35.38 0-64 28.62-64 64v384c0 35.38 28.62 64 64 64h256c35.38 0 64-28.62 64-64v-384C384 28.62 355.4 0 320 0zM192 32c8.875 0 16 7.125 16 16S200.9 64 192 64S176 56.88 176 48S183.1 32 192 32zM192 480c-8.875 0-16-7.125-16-16S183.1 448 192 448s16 7.125 16 16S200.9 480 192 480zM288 367.1c0 26.5-21.5 48-48 48h-96c-26.5 0-48-21.5-48-48V272h192V367.1zM288 240H96V143.1c0-26.5 21.5-47.1 48-47.1h96c26.5 0 48 21.5 48 47.1V240z"/></svg>

<svg xmlns="http://www.w3.org/2000/svg" viewBox="0 0 384 512"><!--! Font Awesome Pro 6.2.0 by @fontawesome - https://fontawesome.com License - https://fontawesome.com/license (Commercial License) Copyright 2022 Fonticons, Inc. --><path d="M64 0C28.7 0 0 28.7 0 64V448c0 35.3 28.7 64 64 64H320c35.3 0 64-28.7 64-64V64c0-35.3-28.7-64-64-64H64zm96 96h64c35.3 0 64 28.7 64 64v80H96V160c0-35.3 28.7-64 64-64zM288 272v80c0 35.3-28.7 64-64 64H160c-35.3 0-64-28.7-64-64V272H288zM192 64c-8.8 0-16-7.2-16-16s7.2-16 16-16s16 7.2 16 16s-7.2 16-16 16zm0 416c-8.8 0-16-7.2-16-16s7.2-16 16-16s16 7.2 16 16s-7.2 16-16 16z"/></svg>
